Newaita/actions/16/distribute-horizontal-equal.svg

<svg height="16" viewBox="0 0 16 16" width="16" xmlns="http://www.w3.org/2000/svg"><g fill="#424242"><path d="m2.976562 4.753906c-.367187 0-.660156.296875-.660156.664063v3.308593c0 .363282.292969.660157.660156.660157h3.308594c.367188 0 .660156-.296875.660156-.660157v-3.308593c0-.367188-.292968-.664063-.660156-.664063zm.992188 1.324219h1.324219c.183593 0 .328125.148437.328125.332031v1.324219c0 .179687-.144532.328125-.328125.328125h-1.324219c-.183594 0-.332031-.148438-.332031-.328125v-1.324219c0-.183594.148437-.332031.332031-.332031zm0 0"/><path d="m5.953125 1.449219h.660156c.183594 0 .332031.148437.332031.328125v12.570312c0 .183594-.148437.332032-.332031.332032h-.660156c-.183594 0-.332031-.148438-.332031-.332032v-12.570312c0-.179688.148437-.328125.332031-.328125zm0 0"/><path d="m9.59375 4.753906c-.367188 0-.664062.296875-.664062.664063v5.621093c0 .367188.296874.664063.664062.664063h3.304688c.367187 0 .664062-.296875.664062-.664063v-5.621093c0-.367188-.296875-.664063-.664062-.664063zm.992188 1.324219h1.320312c.183594 0 .332031.148437.332031.332031v3.636719c0 .183594-.148437.332031-.332031.332031h-1.320312c-.183594 0-.332032-.148437-.332032-.332031v-3.636719c0-.183594.148438-.332031.332032-.332031zm0 0"/><path d="m9.261719 1.449219h.660156c.183594 0 .332031.148437.332031.328125v12.570312c0 .183594-.148437.332032-.332031.332032h-.660156c-.183594 0-.332031-.148438-.332031-.332032v-12.570312c0-.179688.148437-.328125.332031-.328125zm0 0"/><path d="m14.554688 1.449219v2.644531l-1.65625-1.324219zm0 0"/><path d="m1.324219 1.449219v2.644531l1.652343-1.324219zm0 0"/></g></svg>

<?xml version="1.0" encoding="UTF-8"?>
<svg xmlns="http://www.w3.org/2000/svg" xmlns:xlink="http://www.w3.org/1999/xlink" width="16px" height="16px" viewBox="0 0 16 16" version="1.1">
<g id="surface1">
<path style=" stroke:none;fill-rule:nonzero;fill:rgb(25.882354%,25.882354%,25.882354%);fill-opacity:1;" d="M 2.976562 4.753906 C 2.609375 4.753906 2.316406 5.050781 2.316406 5.417969 L 2.316406 8.726562 C 2.316406 9.089844 2.609375 9.386719 2.976562 9.386719 L 6.285156 9.386719 C 6.652344 9.386719 6.945312 9.089844 6.945312 8.726562 L 6.945312 5.417969 C 6.945312 5.050781 6.652344 4.753906 6.285156 4.753906 Z M 3.96875 6.078125 L 5.292969 6.078125 C 5.476562 6.078125 5.621094 6.226562 5.621094 6.410156 L 5.621094 7.734375 C 5.621094 7.914062 5.476562 8.0625 5.292969 8.0625 L 3.96875 8.0625 C 3.785156 8.0625 3.636719 7.914062 3.636719 7.734375 L 3.636719 6.410156 C 3.636719 6.226562 3.785156 6.078125 3.96875 6.078125 Z M 3.96875 6.078125 "/>
<path style=" stroke:none;fill-rule:nonzero;fill:rgb(25.882354%,25.882354%,25.882354%);fill-opacity:1;" d="M 5.953125 1.449219 L 6.613281 1.449219 C 6.796875 1.449219 6.945312 1.597656 6.945312 1.777344 L 6.945312 14.347656 C 6.945312 14.53125 6.796875 14.679688 6.613281 14.679688 L 5.953125 14.679688 C 5.769531 14.679688 5.621094 14.53125 5.621094 14.347656 L 5.621094 1.777344 C 5.621094 1.597656 5.769531 1.449219 5.953125 1.449219 Z M 5.953125 1.449219 "/>
<path style=" stroke:none;fill-rule:nonzero;fill:rgb(25.882354%,25.882354%,25.882354%);fill-opacity:1;" d="M 9.59375 4.753906 C 9.226562 4.753906 8.929688 5.050781 8.929688 5.417969 L 8.929688 11.039062 C 8.929688 11.40625 9.226562 11.703125 9.59375 11.703125 L 12.898438 11.703125 C 13.265625 11.703125 13.5625 11.40625 13.5625 11.039062 L 13.5625 5.417969 C 13.5625 5.050781 13.265625 4.753906 12.898438 4.753906 Z M 10.585938 6.078125 L 11.90625 6.078125 C 12.089844 6.078125 12.238281 6.226562 12.238281 6.410156 L 12.238281 10.046875 C 12.238281 10.230469 12.089844 10.378906 11.90625 10.378906 L 10.585938 10.378906 C 10.402344 10.378906 10.253906 10.230469 10.253906 10.046875 L 10.253906 6.410156 C 10.253906 6.226562 10.402344 6.078125 10.585938 6.078125 Z M 10.585938 6.078125 "/>
<path style=" stroke:none;fill-rule:nonzero;fill:rgb(25.882354%,25.882354%,25.882354%);fill-opacity:1;" d="M 9.261719 1.449219 L 9.921875 1.449219 C 10.105469 1.449219 10.253906 1.597656 10.253906 1.777344 L 10.253906 14.347656 C 10.253906 14.53125 10.105469 14.679688 9.921875 14.679688 L 9.261719 14.679688 C 9.078125 14.679688 8.929688 14.53125 8.929688 14.347656 L 8.929688 1.777344 C 8.929688 1.597656 9.078125 1.449219 9.261719 1.449219 Z M 9.261719 1.449219 "/>
<path style=" stroke:none;fill-rule:nonzero;fill:rgb(25.882354%,25.882354%,25.882354%);fill-opacity:1;" d="M 14.554688 1.449219 L 14.554688 4.09375 L 12.898438 2.769531 Z M 14.554688 1.449219 "/>
<path style=" stroke:none;fill-rule:nonzero;fill:rgb(25.882354%,25.882354%,25.882354%);fill-opacity:1;" d="M 1.324219 1.449219 L 1.324219 4.09375 L 2.976562 2.769531 Z M 1.324219 1.449219 "/>
</g>
</svg>
